images/icon-testimonial-quote.svg

<svg width="50" height="50" viewBox="0 0 50 50" fill="none" xmlns="http://www.w3.org/2000/svg">
<g clip-path="url(#clip0_107_1035)">
<path fill-rule="evenodd" clip-rule="evenodd" d="M40.5763 45.9857C44.004 45.4918 47.2623 43.144 48.8288 40.0393C51.5613 34.6236 49.2875 28.0456 43.7389 25.3144C41.3977 24.1621 38.9385 23.9376 36.2034 24.6269L35.3463 24.8429L35.1385 24.6352C34.9377 24.4343 34.9344 24.392 35.039 23.3648C35.2608 21.1861 35.733 19.5334 36.6782 17.6272C37.5182 15.9335 38.3736 14.7556 39.8439 13.2689C41.7224 11.3692 43.8705 9.89038 46.2928 8.82925C47.9397 8.10786 48.0624 7.89838 47.8602 6.15493C47.7021 4.79165 47.5198 4.39029 46.9295 4.10454C46.358 3.82779 46.1087 3.86284 44.8517 4.39614C36.2606 8.04126 30.1786 13.6061 27.5097 20.2639C26.326 23.2166 25.835 25.8217 25.8349 29.1506C25.8348 31.3502 25.9319 32.4089 26.2865 34.0733C27.0833 37.8129 29.3985 41.5111 32.322 43.7139C34.7309 45.5291 37.8287 46.3817 40.5763 45.9857ZM40.381 44.4397C43.0203 44.0031 45.386 42.4955 46.8634 40.3087C47.3432 39.5987 47.9242 38.3177 48.1596 37.4514C48.4714 36.3034 48.4723 34.0801 48.1614 32.9104C47.6638 31.0382 46.4193 29.1028 44.9893 27.9771C43.6489 26.9221 42.7945 26.4863 41.211 26.0499C40.0595 25.7325 37.9678 25.7589 36.6932 26.1071C36.1689 26.2502 35.5785 26.3674 35.3813 26.3674C34.8987 26.3674 34.2419 26.035 33.8965 25.6159C33.4287 25.0483 33.3445 24.5604 33.4803 23.2027C34.0546 17.4583 37.0423 12.7154 42.2565 9.27055C43.3714 8.53384 44.7325 7.78794 45.737 7.36313L46.4057 7.08032L46.3474 6.65161C46.3153 6.41587 46.2885 6.13022 46.2877 6.01684C46.2841 5.52456 46.1721 5.52348 45.0565 6.00493C40.7691 7.85513 36.4841 10.7129 33.8554 13.4752C30.229 17.2859 28.2523 21.3242 27.5206 26.4163C27.329 27.7495 27.361 31.0423 27.5795 32.4709C28.091 35.8165 29.4349 38.6679 31.6064 41.015C32.9399 42.4564 35.1469 43.7986 36.9142 44.2427C37.8303 44.473 39.579 44.5724 40.381 44.4397Z" fill="#1E84B5"/>
<path d="M41.9943 41.1377C41.8167 41.3633 41.5344 41.4689 40.3811 41.7411C39.8988 41.8549 38.1198 41.7105 37.557 41.5118C36.3849 41.0981 35.1565 40.0445 35.1565 39.4529C35.1565 39.1 35.5313 38.672 35.8405 38.672C36.087 38.672 36.6213 38.9353 36.6213 39.0568C36.6213 39.1046 36.8431 39.3064 37.1142 39.5054C38.0368 40.1826 39.3054 40.3969 40.5764 40.0899C41.4623 39.8761 41.7489 39.8981 41.9853 40.1988C42.2396 40.5221 42.2424 40.8222 41.9943 41.1377Z" fill="#0E384C"/>
<path fill-rule="evenodd" clip-rule="evenodd" d="M14.5909 45.9857C18.0187 45.4918 21.277 43.144 22.8435 40.0393C25.576 34.6236 23.3022 28.0456 17.7535 25.3144C15.4123 24.1621 12.9531 23.9376 10.2181 24.6269L9.36095 24.8429L9.15314 24.6352C8.95236 24.4343 8.94904 24.392 9.05363 23.3648C9.2754 21.1861 9.74767 19.5334 10.6929 17.6272C11.5328 15.9335 12.3883 14.7556 13.8585 13.2689C15.737 11.3692 17.8852 9.89038 20.3074 8.82925C21.9543 8.10786 22.0771 7.89838 21.8748 6.15493C21.7167 4.79165 21.5345 4.39029 20.9442 4.10454C20.3727 3.82779 20.1234 3.86284 18.8663 4.39614C10.2752 8.04126 4.19328 13.6061 1.52433 20.2639C0.340639 23.2166 -0.150377 25.8217 -0.150475 29.1506C-0.150572 31.3502 -0.0534039 32.4089 0.301186 34.0733C1.09796 37.8129 3.4131 41.5111 6.33663 43.7139C8.74552 45.5291 11.8434 46.3817 14.5909 45.9857ZM14.3956 44.4397C17.035 44.0031 19.4007 42.4955 20.878 40.3087C21.3578 39.5987 21.9389 38.3177 22.1742 37.4514C22.486 36.3034 22.4869 34.0801 22.1761 32.9104C21.6784 31.0382 20.4339 29.1028 19.0039 27.9771C17.6636 26.9221 16.8092 26.4863 15.2257 26.0499C14.0741 25.7325 11.9824 25.7589 10.7078 26.1071C10.1835 26.2502 9.59318 26.3674 9.39591 26.3674C8.91339 26.3674 8.25656 26.035 7.91115 25.6159C7.44337 25.0483 7.35919 24.5604 7.49494 23.2027C8.06925 17.4583 11.0569 12.7154 16.2711 9.27055C17.386 8.53384 18.7472 7.78794 19.7517 7.36313L20.4203 7.08032L20.362 6.65161C20.33 6.41587 20.3031 6.13022 20.3024 6.01684C20.2987 5.52456 20.1867 5.52348 19.0711 6.00493C14.7837 7.85513 10.4987 10.7129 7.87003 13.4752C4.24367 17.2859 2.26691 21.3242 1.53527 26.4163C1.34367 27.7495 1.3757 31.0423 1.59415 32.4709C2.10568 35.8165 3.44953 38.6679 5.62101 41.015C6.95451 42.4564 9.16154 43.7986 10.9288 44.2427C11.8449 44.473 13.5937 44.5724 14.3956 44.4397Z" fill="#1E84B5"/>
<path d="M16.0089 41.1377C15.8314 41.3633 15.5491 41.4689 14.3957 41.7411C13.9134 41.8549 12.1344 41.7105 11.5716 41.5118C10.3995 41.0981 9.17113 40.0445 9.17113 39.4529C9.17113 39.1 9.54593 38.672 9.85511 38.672C10.1017 38.672 10.636 38.9353 10.636 39.0568C10.636 39.1046 10.8577 39.3064 11.1288 39.5054C12.0514 40.1826 13.3201 40.3969 14.5911 40.0899C15.477 39.8761 15.7635 39.8981 15.9999 40.1988C16.2542 40.5221 16.2571 40.8222 16.0089 41.1377Z" fill="#0E384C"/>
</g>
<defs>
<clipPath id="clip0_107_1035">
<rect width="50" height="50" fill="white" transform="matrix(-1 0 0 -1 50 50)"/>
</clipPath>
</defs>
</svg>

<svg xmlns="http://www.w3.org/2000/svg" width="50" height="50" fill="none" viewBox="0 0 50 50"><g clip-path="url(#a)"><path fill="#1e84b5" fill-rule="evenodd" d="M40.576 45.986c3.428-.494 6.686-2.842 8.253-5.947 2.732-5.415.459-11.993-5.09-14.725-2.341-1.152-4.8-1.376-7.536-.687l-.857.216-.207-.208c-.201-.2-.205-.243-.1-1.27.222-2.179.694-3.832 1.64-5.738.84-1.693 1.695-2.871 3.165-4.358a20.6 20.6 0 0 1 6.449-4.44c1.647-.721 1.77-.93 1.567-2.674-.158-1.363-.34-1.765-.93-2.05-.572-.277-.821-.242-2.078.291-8.591 3.645-14.673 9.21-17.342 15.868-1.184 2.953-1.675 5.558-1.675 8.887 0 2.2.097 3.258.451 4.922.797 3.74 3.112 7.438 6.036 9.64 2.409 1.816 5.507 2.669 8.254 2.273m-.195-1.546c2.64-.437 5.005-1.944 6.482-4.131.48-.71 1.061-1.991 1.297-2.858.311-1.148.312-3.37.001-4.54-.497-1.873-1.742-3.808-3.172-4.934-1.34-1.055-2.194-1.49-3.778-1.927-1.151-.317-3.243-.291-4.518.057-.524.143-1.114.26-1.312.26-.482 0-1.14-.332-1.484-.751-.468-.568-.553-1.056-.417-2.413.575-5.745 3.562-10.488 8.777-13.932 1.114-.737 2.476-1.483 3.48-1.908l.669-.283-.059-.428a7 7 0 0 1-.06-.635c-.003-.492-.115-.494-1.23-.012-4.288 1.85-8.573 4.708-11.202 7.47-3.626 3.81-5.603 7.85-6.334 12.941-.192 1.334-.16 4.626.058 6.055.512 3.346 1.856 6.197 4.027 8.544 1.334 1.441 3.54 2.784 5.308 3.228.916.23 2.665.33 3.467.197" clip-rule="evenodd"/><path fill="#0e384c" d="M41.994 41.138c-.177.225-.46.33-1.613.603-.482.114-2.261-.03-2.824-.23-1.172-.413-2.4-1.467-2.4-2.058 0-.353.374-.781.684-.781.246 0 .78.263.78.385 0 .048.222.25.493.448.923.678 2.191.892 3.462.585.886-.214 1.173-.192 1.41.109.254.323.256.623.008.939"/><path fill="#1e84b5" fill-rule="evenodd" d="M14.59 45.986c3.429-.494 6.687-2.842 8.253-5.947 2.733-5.415.46-11.993-5.09-14.725-2.34-1.152-4.8-1.376-7.535-.687l-.857.216-.208-.208c-.2-.2-.204-.243-.1-1.27.222-2.179.695-3.832 1.64-5.738.84-1.693 1.695-2.871 3.165-4.358a20.6 20.6 0 0 1 6.45-4.44c1.646-.721 1.77-.93 1.567-2.674-.158-1.363-.34-1.765-.93-2.05-.572-.277-.822-.242-2.079.291-8.59 3.645-14.673 9.21-17.342 15.868C.341 23.217-.15 25.822-.15 29.15c0 2.2.097 3.258.451 4.922.797 3.74 3.112 7.438 6.036 9.64 2.409 1.816 5.506 2.669 8.254 2.273m-.194-1.546c2.639-.437 5.005-1.944 6.482-4.131.48-.71 1.06-1.991 1.296-2.858.312-1.148.313-3.37.002-4.54-.498-1.873-1.742-3.808-3.172-4.934-1.34-1.055-2.195-1.49-3.778-1.927-1.152-.317-3.244-.291-4.518.057-.524.143-1.115.26-1.312.26-.483 0-1.14-.332-1.485-.751-.468-.568-.552-1.056-.416-2.413.574-5.745 3.562-10.488 8.776-13.932 1.115-.737 2.476-1.483 3.48-1.908l.67-.283-.059-.428a7 7 0 0 1-.06-.635c-.003-.492-.115-.494-1.23-.012-4.288 1.85-8.573 4.708-11.202 7.47-3.626 3.81-5.603 7.85-6.335 12.941-.191 1.334-.16 4.626.06 6.055.51 3.346 1.855 6.197 4.026 8.544 1.334 1.441 3.54 2.784 5.308 3.228.916.23 2.665.33 3.467.197" clip-rule="evenodd"/><path fill="#0e384c" d="M16.009 41.138c-.178.225-.46.33-1.613.603-.483.114-2.262-.03-2.824-.23-1.172-.413-2.4-1.467-2.4-2.058 0-.353.374-.781.683-.781.247 0 .781.263.781.385 0 .048.222.25.493.448.922.678 2.191.892 3.462.585.886-.214 1.173-.192 1.409.109.254.323.257.623.009.939"/></g><defs><clipPath id="a"><path fill="#fff" d="M50 50H0V0h50z"/></clipPath></defs></svg>
